;FLAVOR:Marlin
;TIME:8360
;Filament used: 10.2727m
;Layer height: 0.28
;MINX:54.78
;MINY:65.8
;MINZ:0.28
;MAXX:180.38
;MAXY:191.4
;MAXZ:3.92
;TARGET_MACHINE.NAME:Creality Ender-3 S1 Pro
;Generated with Cura_SteamEngine 5.8.1
M82 ;absolute extrusion mode
; Ender 3 S1 Pro Start G-code
; M413 S0 ; Disable power loss recovery
G92 E0 ; Reset Extruder

; Prep surfaces before auto home for better accuracy
M140 S70
M104 S200

G28 ; Home all axes
G1 Z10.0 F3000 ; Move Z Axis up little to prevent scratching of Heat Bed
G1 X0 Y0

M190 S70
M109 S200

G1 X0.1 Y20 Z0.3 F5000.0 ; Move to start position
G1 X0.1 Y200.0 Z0.3 F1500.0 E15 ; Draw the first line
G1 X0.4 Y200.0 Z0.3 F5000.0 ; Move to side a little
G1 X0.4 Y20 Z0.3 F1500.0 E30 ; Draw the second line
G92 E0 ; Reset Extruder
G1 Z2.0 F3000 ; Move Z Axis up little to prevent scratching of Heat Bed
G1 X5 Y20 Z0.3 F5000.0 ; Move over to prevent blob squish

G92 E0
G92 E0
G1 F2400 E-0.8
;LAYER_COUNT:14
;LAYER:0
M107
M204 S2000
G0 F7500 X58.282 Y68.395 Z0.28
M204 S500
;TYPE:SKIRT
G1 F2400 E0
G1 F1500 X60.455 Y66.895 E0.12295
G1 X61.924 Y66.261 E0.19745
G1 X64.089 Y65.8 E0.30052
G1 X171.071 Y65.8 E5.28205
G1 X173.236 Y66.261 E5.38512
G1 X174.705 Y66.895 E5.45963
G1 X176.888 Y68.4 E5.58309
G1 X178.623 Y70.645 E5.71521
G1 X179.699 Y72.973 E5.83463
G1 X180.25 Y75.616 E5.96034
G1 X180.38 Y77.409 E6.04405
G1 X180.345 Y180.56 E10.8472
G1 X180.162 Y182.185 E10.92334
G1 X179.676 Y184.27 E11.02303
G1 X178.626 Y186.543 E11.13962
G1 X176.879 Y188.805 E11.2727
G1 X174.624 Y190.364 E11.40035
G1 X173.35 Y190.916 E11.46501
G1 X171.082 Y191.4 E11.57299
G1 X63.954 Y191.395 E16.56132
G1 X61.788 Y190.881 E16.66498
G1 X60.656 Y190.45 E16.72138
G1 X58.301 Y188.837 E16.8543
G1 X56.526 Y186.521 E16.99017
G1 X55.461 Y184.228 E17.10789
G1 X54.91 Y181.585 E17.23361
G1 X54.78 Y179.792 E17.31732
G1 X54.815 Y76.641 E22.12046
G1 X54.998 Y75.016 E22.19661
G1 X55.486 Y72.924 E22.29663
G1 X56.532 Y70.661 E22.41272
G1 X58.282 Y68.395 E22.54604
M204 S2000
G0 F7500 X58.561 Y68.688
M204 S500
G1 F1500 X60.65 Y67.246 E22.66423
G1 X62.045 Y66.644 E22.73498
G1 X64.13 Y66.2 E22.83424
G1 X171.03 Y66.2 E27.81196
G1 X173.115 Y66.644 E27.91122
G1 X174.51 Y67.246 E27.98197
G1 X176.607 Y68.692 E28.10058
G1 X178.28 Y70.857 E28.22798
G1 X179.318 Y73.101 E28.34311
G1 X179.851 Y75.645 E28.46414
G1 X179.98 Y77.409 E28.5465
G1 X179.947 Y180.516 E33.34759
G1 X179.772 Y182.094 E33.42152
G1 X179.295 Y184.142 E33.51944
G1 X178.282 Y186.334 E33.63188
G1 X176.6 Y188.512 E33.76002
G1 X174.43 Y190.012 E33.88285
G1 X173.227 Y190.533 E33.94389
G1 X171.04 Y191 E34.04803
G1 X64 Y190.995 E39.03226
G1 X61.93 Y190.507 E39.13129
G1 X60.842 Y190.093 E39.18549
G1 X58.578 Y188.542 E39.31328
G1 X56.871 Y186.315 E39.44394
G1 X55.842 Y184.099 E39.55771
G1 X55.309 Y181.556 E39.67869
G1 X55.18 Y179.792 E39.76105
G1 X55.213 Y76.685 E44.56214
G1 X55.388 Y75.107 E44.63607
G1 X55.867 Y73.053 E44.73428
G1 X56.876 Y70.87 E44.84626
G1 X58.561 Y68.688 E44.97464
M204 S2000
G0 F7500 X58.84 Y68.981
M204 S500
G1 F1500 X60.845 Y67.597 E45.08808
G1 X62.166 Y67.027 E45.15507
G1 X64.171 Y66.6 E45.25053
G1 X170.989 Y66.6 E50.22442
G1 X172.994 Y67.027 E50.31988
G1 X174.315 Y67.597 E50.38687
G1 X176.326 Y68.984 E50.50062
G1 X177.937 Y71.069 E50.62331
G1 X178.937 Y73.23 E50.73419
G1 X179.452 Y75.674 E50.85049
G1 X179.58 Y77.409 E50.9315
G1 X179.549 Y180.472 E55.73055
G1 X179.374 Y182.05 E55.80447
G1 X178.916 Y184.009 E55.89815
G1 X177.938 Y186.125 E56.0067
G1 X176.321 Y188.219 E56.12989
G1 X174.236 Y189.66 E56.24791
G1 X173.103 Y190.151 E56.30541
G1 X170.999 Y190.6 E56.40558
G1 X64.049 Y190.595 E61.38562
G1 X62.072 Y190.133 E61.48016
G1 X61.028 Y189.736 E61.53217
G1 X58.855 Y188.247 E61.65483
G1 X57.216 Y186.109 E61.78027
G1 X56.224 Y183.971 E61.89002
G1 X55.708 Y181.527 E62.00633
G1 X55.58 Y179.792 E62.08734
G1 X55.611 Y76.729 E66.88639
G1 X55.786 Y75.151 E66.96031
G1 X56.246 Y73.186 E67.05429
G1 X57.22 Y71.079 E67.16237
G1 X58.84 Y68.981 E67.2858
M204 S2000
G0 F7500 X59.119 Y69.274
M204 S500
G1 F1500 X61.04 Y67.948 E67.39449
G1 X62.287 Y67.41 E67.45773
G1 X64.212 Y67 E67.54937
G1 X170.948 Y67 E72.51945
G1 X172.873 Y67.41 E72.6111
G1 X174.12 Y67.948 E72.67434
G1 X176.045 Y69.276 E72.78323
G1 X177.594 Y71.281 E72.90121
G1 X178.555 Y73.358 E73.00777
G1 X179.053 Y75.704 E73.11945
G1 X179.18 Y77.409 E73.19906
G1 X179.151 Y180.428 E77.99606
G1 X178.976 Y182.006 E78.06999
G1 X178.536 Y183.877 E78.15948
G1 X177.594 Y185.916 E78.26407
G1 X176.042 Y187.926 E78.38232
G1 X174.042 Y189.308 E78.49552
G1 X172.98 Y189.768 E78.54941
G1 X170.957 Y190.2 E78.64573
G1 X64.096 Y190.195 E83.62163
G1 X62.214 Y189.759 E83.71158
G1 X61.214 Y189.379 E83.76139
G1 X59.132 Y187.952 E83.87893
G1 X57.561 Y185.903 E83.99915
G1 X56.605 Y183.843 E84.1049
G1 X56.107 Y181.497 E84.21657
G1 X55.98 Y179.792 E84.29619
G1 X56.009 Y76.773 E89.09318
G1 X56.184 Y75.195 E89.16711
G1 X56.626 Y73.318 E89.2569
G1 X57.564 Y71.288 E89.36103
G1 X59.119 Y69.274 E89.47951
M204 S2000
G0 F7500 X59.4 Y69.566
M204 S500
G1 F1500 X61.235 Y68.299 E89.58335
G1 X62.408 Y67.793 E89.64283
G1 X64.253 Y67.4 E89.73067
G1 X170.907 Y67.4 E94.69693
G1 X172.752 Y67.793 E94.78476
G1 X173.925 Y68.299 E94.84425
G1 X175.764 Y69.568 E94.94829
G1 X177.251 Y71.493 E95.06156
G1 X178.173 Y73.485 E95.16376
G1 X178.654 Y75.734 E95.27086
G1 X178.78 Y77.409 E95.34907
G1 X178.753 Y180.384 E100.14402
G1 X178.578 Y181.962 E100.21795
G1 X178.156 Y183.745 E100.30327
G1 X177.25 Y185.707 E100.40389
G1 X175.763 Y187.633 E100.5172
G1 X173.848 Y188.956 E100.62558
G1 X172.856 Y189.386 E100.67592
G1 X170.916 Y189.8 E100.76829
G1 X64.143 Y189.795 E105.74009
G1 X62.304 Y189.369 E105.82799
G1 X61.402 Y189.023 E105.87297
G1 X59.409 Y187.657 E105.98548
G1 X57.906 Y185.697 E106.10049
G1 X56.987 Y183.715 E106.20222
G1 X56.506 Y181.467 E106.30927
G1 X56.38 Y179.792 E106.38748
G1 X56.407 Y76.817 E111.18243
G1 X56.582 Y75.239 E111.25636
G1 X57.006 Y73.45 E111.34197
G1 X57.907 Y71.499 E111.44203
G1 X59.4 Y69.566 E111.55577
M204 S2000
G0 F7500 X59.679 Y69.859
M204 S500
G1 F1500 X61.43 Y68.65 E111.65485
G1 X62.529 Y68.176 E111.71058
G1 X64.294 Y67.8 E111.79461
G1 X170.866 Y67.8 E116.75705
G1 X172.631 Y68.176 E116.84108
G1 X173.73 Y68.65 E116.89681
G1 X175.483 Y69.86 E116.99599
G1 X176.908 Y71.705 E117.10454
G1 X177.791 Y73.613 E117.20244
G1 X178.255 Y75.764 E117.3049
G1 X178.38 Y77.409 E117.38172
G1 X178.355 Y180.34 E122.17462
G1 X178.18 Y181.918 E122.24855
G1 X177.776 Y183.614 E122.32973
G1 X176.907 Y185.496 E122.42626
G1 X175.482 Y187.341 E122.53481
G1 X173.654 Y188.604 E122.63827
G1 X172.733 Y189.003 E122.68501
G1 X170.874 Y189.4 E122.77352
G1 X64.19 Y189.395 E127.74117
G1 X62.394 Y188.979 E127.82702
G1 X61.588 Y188.666 E127.86728
G1 X59.686 Y187.362 E127.97466
G1 X58.251 Y185.491 E128.08446
G1 X57.369 Y183.587 E128.18216
G1 X56.905 Y181.437 E128.28458
G1 X56.78 Y179.792 E128.3614
G1 X56.805 Y76.861 E133.1543
G1 X56.98 Y75.283 E133.22823
G1 X57.386 Y73.581 E133.3097
G1 X58.251 Y71.708 E133.40577
G1 X59.679 Y69.859 E133.51456
M204 S2000
G0 F7500 X59.958 Y70.152
M204 S500
G1 F1500 X61.625 Y69.001 E133.60888
G1 X62.65 Y68.559 E133.66086
G1 X64.335 Y68.2 E133.74108
G1 X170.825 Y68.2 E138.6997
G1 X172.51 Y68.559 E138.77992
G1 X173.535 Y69.001 E138.8319
G1 X175.204 Y70.153 E138.92633
G1 X176.564 Y71.914 E139.02994
G1 X177.409 Y73.74 E139.12363
G1 X177.856 Y75.795 E139.22155
G1 X177.98 Y77.409 E139.29693
G1 X177.957 Y180.296 E144.08778
G1 X177.782 Y181.874 E144.16171
G1 X177.396 Y183.482 E144.23871
G1 X176.563 Y185.287 E144.33128
G1 X175.203 Y187.048 E144.43488
G1 X173.46 Y188.252 E144.53353
G1 X172.609 Y188.621 E144.57672
G1 X170.833 Y189 E144.66128
G1 X64.237 Y188.995 E149.62483
G1 X62.484 Y188.589 E149.70862
G1 X61.776 Y188.31 E149.74406
G1 X59.965 Y187.068 E149.84631
G1 X58.595 Y185.283 E149.95109
G1 X57.751 Y183.46 E150.04463
G1 X57.304 Y181.406 E150.14251
G1 X57.18 Y179.792 E150.21789
G1 X57.203 Y76.905 E155.00874
G1 X57.378 Y75.327 E155.08266
G1 X57.766 Y73.713 E155.15996
G1 X58.595 Y71.917 E155.25207
G1 X59.958 Y70.152 E155.35591
M204 S2000
G0 F7500 X60.237 Y70.445
M204 S500
G1 F1500 X61.82 Y69.352 E155.44548
G1 X62.771 Y68.942 E155.4937
G1 X64.376 Y68.6 E155.57012
G1 X170.784 Y68.6 E160.52492
G1 X172.389 Y68.942 E160.60133
G1 X173.34 Y69.352 E160.64956
G1 X174.925 Y70.446 E160.73923
G1 X176.22 Y72.123 E160.83789
G1 X177.027 Y73.867 E160.92738
G1 X177.457 Y75.826 E161.02077
G1 X177.58 Y77.409 E161.0947
G1 X177.559 Y180.252 E165.8835
G1 X177.384 Y181.83 E165.95743
G1 X177.016 Y183.351 E166.0303
G1 X176.219 Y185.078 E166.11886
G1 X174.924 Y186.755 E166.21752
G1 X173.266 Y187.9 E166.31135
G1 X172.486 Y188.238 E166.35093
G1 X170.791 Y188.6 E166.43164
G1 X64.284 Y188.595 E171.39105
G1 X62.574 Y188.199 E171.47278
G1 X61.966 Y187.955 E171.50329
G1 X60.244 Y186.774 E171.60052
G1 X58.939 Y185.074 E171.70031
G1 X58.133 Y183.333 E171.78964
G1 X57.703 Y181.375 E171.88299
G1 X57.58 Y179.792 E171.95692
G1 X57.601 Y76.949 E176.74572
G1 X57.776 Y75.371 E176.81965
G1 X58.146 Y73.844 E176.89281
G1 X58.939 Y72.126 E176.98092
G1 X60.237 Y70.445 E177.07982
M204 S2000
G0 F7500 X60.516 Y70.738
M204 S500
G1 F1500 X62.015 Y69.703 E177.16464
G1 X62.892 Y69.325 E177.20911
G1 X64.417 Y69 E177.28171
G1 X170.743 Y69 E182.23269
G1 X172.268 Y69.325 E182.3053
G1 X173.145 Y69.703 E182.34977
G1 X174.646 Y70.739 E182.43469
G1 X175.876 Y72.332 E182.52841
G1 X176.645 Y73.994 E182.61368
G1 X177.066 Y75.912 E182.70512
G1 X177.18 Y77.409 E182.77502
G1 X177.161 Y180.209 E187.56182
G1 X176.995 Y181.736 E187.63335
G1 X176.636 Y183.22 E187.70444
G1 X175.875 Y184.869 E187.78901
G1 X174.645 Y186.462 E187.88272
G1 X173.072 Y187.548 E187.97173
G1 X172.362 Y187.856 E188.00777
G1 X170.75 Y188.2 E188.08452
G1 X64.33 Y188.195 E193.03988
G1 X62.723 Y187.828 E193.11663
G1 X62.156 Y187.601 E193.14507
G1 X60.523 Y186.48 E193.2373
G1 X59.283 Y184.865 E193.33211
G1 X58.515 Y183.206 E193.41724
G1 X58.094 Y181.289 E193.50863
G1 X57.98 Y179.792 E193.57854
G1 X57.999 Y76.992 E198.36534
G1 X58.165 Y75.465 E198.43686
G1 X58.526 Y73.975 E198.50825
G1 X59.283 Y72.335 E198.59236
G1 X60.516 Y70.738 E198.6863
M204 S2000
G0 F7500 X60.795 Y71.031
M204 S500
G1 F1500 X62.21 Y70.054 E198.76637
G1 X63.013 Y69.708 E198.80709
G1 X64.458 Y69.4 E198.87588
G1 X170.702 Y69.4 E203.82305
G1 X172.147 Y69.708 E203.89185
G1 X172.95 Y70.054 E203.93256
G1 X174.367 Y71.032 E204.01273
G1 X175.532 Y72.541 E204.1015
G1 X176.263 Y74.121 E204.18257
G1 X176.675 Y75.998 E204.27205
G1 X176.78 Y77.409 E204.33793
G1 X176.763 Y180.167 E209.12277
G1 X176.606 Y181.642 E209.19184
G1 X176.256 Y183.089 E209.26117
G1 X175.531 Y184.66 E209.34173
G1 X174.366 Y186.169 E209.4305
G1 X172.878 Y187.196 E209.51469
G1 X172.239 Y187.473 E209.54712
G1 X170.708 Y187.8 E209.62002
G1 X64.375 Y187.795 E214.57133
G1 X62.812 Y187.438 E214.64598
G1 X62.346 Y187.246 E214.66945
G1 X60.802 Y186.186 E214.75666
G1 X59.627 Y184.656 E214.84648
G1 X58.897 Y183.079 E214.9274
G1 X58.485 Y181.203 E215.01684
G1 X58.38 Y179.792 E215.08272
G1 X58.397 Y77.034 E219.86757
G1 X58.554 Y75.559 E219.93664
G1 X58.906 Y74.106 E220.00625
G1 X59.627 Y72.544 E220.08636
G1 X60.795 Y71.031 E220.17536
M204 S2000
G0 F7500 X61.074 Y71.324
M204 S500
G1 F1500 X62.405 Y70.405 E220.25068
G1 X63.134 Y70.091 E220.28764
G1 X64.499 Y69.8 E220.35262
G1 X170.661 Y69.8 E225.29597
G1 X172.026 Y70.091 E225.36096
G1 X172.755 Y70.405 E225.39792
G1 X174.086 Y71.324 E225.47323
G1 X175.189 Y72.752 E225.55725
G1 X175.881 Y74.248 E225.63401
G1 X176.284 Y76.084 E225.72153
G1 X176.38 Y77.409 E225.78339
G1 X176.365 Y180.126 E230.56633
G1 X176.217 Y181.548 E230.6329
G1 X175.876 Y182.958 E230.70045
G1 X175.188 Y184.449 E230.77691
G1 X174.085 Y185.877 E230.86093
G1 X172.684 Y186.844 E230.9402
G1 X172.115 Y187.091 E230.96908
G1 X170.667 Y187.4 E231.03802
G1 X64.419 Y187.395 E235.98537
G1 X62.964 Y187.068 E236.05481
G1 X62.537 Y186.892 E236.07632
G1 X61.081 Y185.892 E236.15857
G1 X59.971 Y184.447 E236.24341
G1 X59.279 Y182.952 E236.32012
G1 X58.876 Y181.117 E236.4076
G1 X58.78 Y179.792 E236.46946
G1 X58.795 Y77.075 E241.2524
G1 X58.943 Y75.653 E241.31897
G1 X59.286 Y74.237 E241.38681
G1 X59.971 Y72.753 E241.46292
G1 X61.074 Y71.324 E241.54698
M204 S2000
G0 F7500 X61.353 Y71.617
M204 S500
G1 F1500 X62.599 Y70.757 E241.61747
G1 X63.257 Y70.473 E241.65084
G1 X64.54 Y70.2 E241.71192
G1 X170.62 Y70.2 E246.65145
G1 X171.903 Y70.473 E246.71253
G1 X172.561 Y70.757 E246.7459
G1 X173.807 Y71.617 E246.8164
G1 X174.845 Y72.961 E246.89547
G1 X175.499 Y74.375 E246.96802
G1 X175.893 Y76.17 E247.05359
G1 X175.98 Y77.409 E247.11142
G1 X175.967 Y180.086 E251.8925
G1 X175.828 Y181.454 E251.95652
G1 X175.496 Y182.827 E252.0223
G1 X174.844 Y184.24 E252.09476
G1 X173.806 Y185.584 E252.17383
G1 X172.49 Y186.492 E252.24828
G1 X171.992 Y186.708 E252.27356
G1 X170.625 Y187 E252.33865
G1 X64.465 Y186.995 E257.2819
G1 X63.117 Y186.698 E257.34618
G1 X62.727 Y186.537 E257.36582
G1 X61.36 Y185.598 E257.44305
G1 X60.315 Y184.238 E257.52291
G1 X59.661 Y182.825 E257.59541
G1 X59.267 Y181.031 E257.68094
G1 X59.18 Y179.792 E257.73877
G1 X59.193 Y77.115 E262.51985
G1 X59.332 Y75.747 E262.58387
G1 X59.666 Y74.368 E262.64994
G1 X60.315 Y72.962 E262.72205
G1 X61.353 Y71.617 E262.80116
M204 S2000
G0 F7500 X61.632 Y71.91
M204 S500
G1 F1500 X62.794 Y71.108 E262.8669
G1 X63.378 Y70.856 E262.89652
G1 X64.581 Y70.6 E262.95379
G1 X170.579 Y70.6 E267.8895
G1 X171.782 Y70.856 E267.94677
G1 X172.366 Y71.108 E267.97639
G1 X173.528 Y71.91 E268.04213
G1 X174.501 Y73.17 E268.11626
G1 X175.118 Y74.505 E268.18474
G1 X175.494 Y76.198 E268.2655
G1 X175.58 Y77.409 E268.32203
G1 X175.569 Y180.047 E273.10128
G1 X175.439 Y181.36 E273.16272
G1 X175.116 Y182.696 E273.22672
G1 X174.5 Y184.031 E273.29519
G1 X173.527 Y185.291 E273.36931
G1 X172.296 Y186.14 E273.43895
G1 X171.868 Y186.326 E273.46068
G1 X170.584 Y186.6 E273.52181
G1 X64.51 Y186.595 E278.46106
G1 X63.203 Y186.307 E278.52338
G1 X62.921 Y186.185 E278.53769
G1 X61.638 Y185.303 E278.61018
G1 X60.659 Y184.029 E278.685
G1 X60.042 Y182.695 E278.75344
G1 X59.666 Y181.003 E278.83415
G1 X59.58 Y179.792 E278.89068
G1 X59.591 Y77.154 E283.66993
G1 X59.721 Y75.841 E283.73137
G1 X60.046 Y74.499 E283.79567
G1 X60.659 Y73.171 E283.86377
G1 X61.632 Y71.91 E283.93794
M204 S2000
G0 F7500 X61.911 Y72.203
M204 S500
G1 F1500 X62.989 Y71.459 E283.99893
G1 X63.499 Y71.239 E284.02479
G1 X64.622 Y71 E284.07825
G1 X170.538 Y71 E289.01015
G1 X171.661 Y71.239 E289.06361
G1 X172.171 Y71.459 E289.08947
G1 X173.249 Y72.203 E289.15046
G1 X174.157 Y73.379 E289.21965
G1 X174.737 Y74.635 E289.28407
G1 X175.095 Y76.227 E289.36005
G1 X175.18 Y77.409 E289.41523
G1 X175.171 Y180.009 E294.19271
G1 X175.05 Y181.266 E294.25152
G1 X174.736 Y182.565 E294.31374
G1 X174.156 Y183.822 E294.37821
G1 X173.248 Y184.998 E294.44739
G1 X172.102 Y185.788 E294.5122
G1 X171.745 Y185.943 E294.53032
G1 X170.542 Y186.2 E294.5876
G1 X64.555 Y186.195 E299.5228
G1 X63.289 Y185.916 E299.58317
G1 X63.148 Y185.855 E299.59032
G1 X61.916 Y185.008 E299.65994
G1 X61.003 Y183.82 E299.72971
G1 X60.423 Y182.565 E299.79408
G1 X60.065 Y180.974 E299.87002
G1 X59.98 Y179.792 E299.9252
G1 X59.989 Y77.192 E304.70269
G1 X60.11 Y75.935 E304.76149
G1 X60.426 Y74.63 E304.82401
G1 X61.003 Y73.38 E304.88812
G1 X61.911 Y72.203 E304.95734
M204 S2000
G0 F7500 X62.19 Y72.496
M204 S500
G1 F1500 X63.184 Y71.81 E305.01357
G1 X63.62 Y71.622 E305.03568
G1 X64.663 Y71.4 E305.08534
G1 X170.497 Y71.4 E310.01341
G1 X171.54 Y71.622 E310.06307
G1 X171.976 Y71.81 E310.08517
G1 X172.97 Y72.496 E310.14141
